assets/icons/utility/help_center.svg

<?xml version="1.0"?><svg xmlns="http://www.w3.org/2000/svg" width="52" height="52" viewBox="0 0 52 52"><path fill="#fff" d="m25.7 2c-13.3 0.2-23.8 11.1-23.7 24.3 0.2 13.3 11.1 23.8 24.3 23.7 13.3-0.2 23.8-11.1 23.7-24.3-0.2-13.3-11.1-23.8-24.3-23.7z m0 3.2c3.6-0.1 7 0.8 9.9 2.3l-3.2 5.4c-1.9-1-4.1-1.5-6.4-1.5s-4.5 0.5-6.4 1.5l-3.2-5.4c2.8-1.4 5.9-2.3 9.3-2.3z m-12.8 27.2l-5.4 3.2c-1.4-2.8-2.3-6-2.3-9.4-0.1-3.6 0.8-7 2.3-9.9l5.4 3.2c-1 1.9-1.5 4.1-1.5 6.4s0.5 4.6 1.5 6.5z m13.4 14.4c-3.6 0.1-7-0.8-9.9-2.3l3.2-5.4c1.9 1 4.1 1.5 6.4 1.5s4.5-0.5 6.4-1.5l3.2 5.4c-2.8 1.4-5.9 2.3-9.3 2.3z m-0.3-9.3c-6.4 0-11.5-5.2-11.5-11.5 0-6.4 5.2-11.5 11.5-11.5 6.4 0 11.5 5.2 11.5 11.5 0 6.4-5.1 11.5-11.5 11.5z m13.1-5.1c1-1.9 1.5-4.1 1.5-6.4s-0.5-4.5-1.5-6.4l5.4-3.2c1.4 2.8 2.3 6 2.3 9.4 0.1 3.6-0.8 7-2.3 9.9l-5.4-3.3z"></path></svg>

<svg xmlns="http://www.w3.org/2000/svg" x="0px" y="0px"
	 width="52px" height="52px" viewBox="0 0 52 52" enable-background="new 0 0 52 52" xml:space="preserve">
<path fill="#FFFFFF" d="M25.7,2C12.4,2.2,1.9,13.1,2,26.3C2.2,39.6,13.1,50.1,26.3,50C39.6,49.8,50.1,38.9,50,25.7
	C49.8,12.4,38.9,1.9,25.7,2z M25.7,5.2c3.6-0.1,7,0.8,9.9,2.3l-3.2,5.4c-1.9-1-4.1-1.5-6.4-1.5s-4.5,0.5-6.4,1.5l-3.2-5.4
	C19.2,6.1,22.3,5.2,25.7,5.2z M12.9,32.4l-5.4,3.2c-1.4-2.8-2.3-6-2.3-9.4c-0.1-3.6,0.8-7,2.3-9.9l5.4,3.2c-1,1.9-1.5,4.1-1.5,6.4
	S11.9,30.5,12.9,32.4z M26.3,46.8c-3.6,0.1-7-0.8-9.9-2.3l3.2-5.4c1.9,1,4.1,1.5,6.4,1.5s4.5-0.5,6.4-1.5l3.2,5.4
	C32.8,45.9,29.7,46.8,26.3,46.8z M26,37.5c-6.4,0-11.5-5.2-11.5-11.5c0-6.4,5.2-11.5,11.5-11.5c6.4,0,11.5,5.2,11.5,11.5
	C37.5,32.4,32.4,37.5,26,37.5z M39.1,32.4c1-1.9,1.5-4.1,1.5-6.4s-0.5-4.5-1.5-6.4l5.4-3.2c1.4,2.8,2.3,6,2.3,9.4
	c0.1,3.6-0.8,7-2.3,9.9L39.1,32.4z"/>
</svg>
